dist/svgs/unicons/line/compress.svg

<svg xmlns="http://www.w3.org/2000/svg" viewBox="0 0 24 24"><path d="M16 9h5a1 1 0 000-2h-4V3a1 1 0 00-2 0v5a1 1 0 001 1zm-8 6H3a1 1 0 000 2h4v4a1 1 0 002 0v-5a1 1 0 00-1-1zM8 2a1 1 0 00-1 1v4H3a1 1 0 000 2h5a1 1 0 001-1V3a1 1 0 00-1-1zm13 13h-5a1 1 0 00-1 1v5a1 1 0 002 0v-4h4a1 1 0 000-2z"/></svg>

<svg xmlns="http://www.w3.org/2000/svg" viewBox="0 0 24 24"><path d="M16,9h5a1,1,0,0,0,0-2H17V3a1,1,0,0,0-2,0V8A1,1,0,0,0,16,9ZM8,15H3a1,1,0,0,0,0,2H7v4a1,1,0,0,0,2,0V16A1,1,0,0,0,8,15ZM8,2A1,1,0,0,0,7,3V7H3A1,1,0,0,0,3,9H8A1,1,0,0,0,9,8V3A1,1,0,0,0,8,2ZM21,15H16a1,1,0,0,0-1,1v5a1,1,0,0,0,2,0V17h4a1,1,0,0,0,0-2Z"/></svg>
